X: 119
T:Haymaker's Jig
% Nottingham Music Database
S:Trad, arr Phil Rowe
M:6/8
K:G
B/2-c/2|"G"d2d dBd|gfg B3|"Am"cBc ABc|"D7"e2d B2c|
"G"d2d dBd|"G"gfg B2g|"D"fed ecA|"G"G3 G2::
B/2-d/2|"G"g2g gfe|dgd B3|"Am"cBc ABc|"D7"e2d B2d|
"G"g2g gfe|dgd B2g|"D7"fed ecA|"G"G3 -G2:|<end>
<start>
